X: 113205
T: MARQUIS OF HUNTLY
Q: "Strathspey."
R:  Strathspey.
%R: strathspey
B: James Kerr "Merry Melodies" v.1 p.13 s.2 #5
Z: 2017 John Chambers <jc:trillian.mit.edu>
M: C
L: 1/16
K: Gm
|: uF2 |\
vDuG3 vG3uF DG3 G3A | F3GA3B cBAG FA3 |\
DG3 G3F DG3 G3g | f3c dcBA BG3 G2 :|\
ud2 |\
g3a bg3 dg3 bg3 | af3 c3d f3g af3 |
g3a bg3 dg3 bg3 | bagf df3 gg3 {g}g3^f |\
g3a bg3 af3 g3d | fc3 d3f AF3 cA3 |\
DG3 G3F DG3 G3g | f3c dcBA BG3 G2 |]

%%sep 1 1 500
%%sep 1 1 500

